X: 39600
T: Tell Her I Am
R: jig
M: 6/8
K: Gmajor
|:d|edB GAB|DED GAB|DED cBA|BGE E2d|
edB GAB|DED GAB|AGE cBA|BGG G2:|
|:d|Bdd def|gfe dBG|A2A AGA|BGE E2d|
Bdd def|gfe dBG|AGE cBA|BGG G2:|

